X:1
T:Where My Eileen is Waiting
M:6/8
L:1/8
K:D
 D/2E/2| F3/2 E/2 F GFG| A d2- d2 D/2E/2| FAAB-A F| E3- E2 D/2E/2|\
 F3/2 F/2 F GFG| A d2- d2 D/2E/2| F3/2 G/2 G EFE| D3- D2 A| BGB d2 c/2B/2|\
 B A2- A2 B/2c/2| dAA BAF| E3- E2 D/2E/2| F3/2 F/2 F GFG| A d2- d2D/2-E/2|\
 F3/2 G/2 F EFE| D3- D2 A| B G3/2 B/2 d3/2 c/2 B| B A2- A2 B/2c/2|\
 dAA BAF| E3- E2 D/2E/2| F3/2 F/2 F GFG| A d2- d2D/2-E/2| F3/2 G/2 F E3/2 F/2 E|\
 D3- D2||
